X:110
T:Shores of Lough Gowna
M:6/8
L:1/8
S:Dermy Diamond, Belfast (fiddle)
R:Jig
D:Private tape - Milltown Malbay 1985
N:As played
Z:Bernie Stocks
K:D
A~B2 {d}BAF | FEF DFA | B(3.G.G.G BAF | dze fed | BdB {d}BAF | FEF DFA |\
def geg | fdB BdA | |BAA BAF | FEF DFA | BGG BAF | dze fed |\
BdB {d}BAF | FEF DFA | def geg | fdB BdA |: def a2b | afb afe |\
dFA def | ~g3 fdB | def A2a2b | afb afe | def geg | fdB BFA :|
